X:1
T:Ade zur guten Nacht
T:Satz: Konrad Max Kunz
T:Volkslied Str. 3: Eduard Mörike
T:Ade zur guten Nacht
T:Creative Commons Attribution Non Commercial 3.0
C:Volksweise
Z:Creative Commons Attribution Non Commercial 3.0
%%score [ ( 1 2 ) ( 3 4 ) ]
L:1/8
Q:1/4=60
M:2/4
K:G
V:1 treble nm="S\nA"
V:2 treble 
V:3 bass nm="T\nB"
V:4 bass 
V:1
"^Moderato"!f! D | !>!G2 !>!Ac | B B/A/ G!wedge!A | !>!B2 !>!ce | d d/c/ B | d | d c/B/ cd | %7
w: 1.~A-|de zur *|gu- ten * Nacht! Jetzt|ist der *|Schluss ge- * macht,|dass|ich muss * schei- *|
w: 2.~Es|trau- ern *|Berg und * Tal, wo|ich viel *|tau- send- * mal|bin|drü- ber * gan- *|
w: 3.~Das|Brünn- lein *|rinnt und * rauscht wohl|dort am *|Hol- der- * strauch,|wo|wir ge- * ses- *|
w: 4.~Die|Mäd- chen *|in der * Welt sind|fal- scher *|als das * Geld|mit|ih- rem * Lie- *|
 B2 z |: !wedge!d | !>!B2 !>!d2 | e e/d/ c | B | A2 ce | d d/c/ Bd | d c/B/ cd | B2 z :| %16
w: den.|Im|Som- mer|wächst der * Klee,|im|Win- ter *|schneit's den * Schnee, da|komm' ich _ wie- *|der.|
w: gen;|das|hat deine|Schön- heit ge- macht,|die|mich zum *|Lie- ben ge- bracht, mit|gro- ßem Ver- lan- *|gen.|
w: sen.|Wie|man- chen|Glo- cken- * schlag,|da|Herz bei *|Her- zen * lag, das|hast du ver- ges- *|sen!|
w: ben.|A-|de zur|gu- ten * Nacht!|Jetzt|ist der *|Schluss ge- * macht, dass|ich muss _ schei- *|den.|
V:2
 D | D2 FA | G G/D/ B,F | G2 Ac | B B/A/ G | B | B A/G/ AB | G2 x |: B | G2 B2 | c c/B/ A | G | %12
 F2 Ac | B B/A/ GB | B A/G/ AB | G2 x :| %16
V:3
!f! D | B,2 D2 | D B,/D/ GD | G2 G2 | GG, B, | G, | DD D2 | D2 z |: B, | D2 G2 | EE E | E | %12
 A,2 (!>!D,2 | D) B,/C/ DG | DD D2 | D2 z :| %16
V:4
 D | !>!G,2 !>!D,2 | G,G, G,!wedge!D | !>!G,2 !>!G,2 | G, G,/A,/ B, | G, | DD D,2 | G,2 x |: %8
 !wedge!G, | !>!B,2 !>!G,2 | CC, C, | C, | D,2 (D,2 | B,) G,/A,/ B,G, | DD D,2 | G,2 x :| %16

